X:1
T:Ich ruf zu dir, Herr Jesus Christ
T:Ich ruf zu dir, Herr Jesus Christ
T:Anonymous 18th C.
T:Public Domain - Mutopia-2005/08/07-578
T:Public Domain - Mutopia-2005/08/07-578
T:Public Domain - Mutopia-2005/08/07-578
T:Public Domain - Mutopia-2005/08/07-578
C:Anonymous 18th C.
Z:Public Domain - Mutopia-2005/08/07-578
%%score { ( 1 2 ) | 3 | 4 }
L:1/8
Q:1/4=80
M:3/4
K:Ab
V:1 treble nm="Organ" snm="Org."
V:2 treble 
V:3 alto 
V:4 bass 
V:1
 z3 c/B/ cB | AG/A/ FG/A/ BG |: AG/A/ FG AG | A2 z =A B=B | c2 z =B/c/ =dB | c2 z =B cB | c6- | %7
 cB/c/ AcdB | cBABcB | c=d/=e/ f_e dg | =e=d/c/ c'_e e/d/e | =d/c/B b_d d/c/d | c/B/A ac c/B/c | %13
 B/A/G gB B/A/B | A/G/F fA A/G/A | A2 G2 z2 | F/G/A/B/ cF _e/d/c/B/ | cF/A/4c/4 f4- | fcfg/a/ g>f | %19
 f=e/=d/ ec/B/ cB | AG/A/ FG/A/ BG | AG/A/ FGAG | A2 z =AB=B | c2 z =B/c/ =dB | c2 z =B cB | c6- | %26
 cB/c/ AcdB | cBABcB | c=d/=e/ f_edg | =e=d/c/ c'_e e/d/e | =d/c/B b_d d/c/d | c/B/A aeAf | %32
 B/A/G/F/ EB A2- | A/G/F/=E/ F f2 e | d/c/B/=A/ B =e2 f | g/f/=e/=d/ cc/B/ cB | AG/A/ FABG :| %37
 AG/A/ Ffed | cB/c/ AeAe | _g/f/e/d/ eA/G/ AA/G/ | A3 eAe | _g/f/e/d/ f/e/d/c/ e/d/c/B/ | %42
 c/B/c/d/ edcB/c/ | d/A/d/f/ adcB | A/E/F/G/ A/B/c/d/ e2- | ed/c/ d3 c/d/ | cB/c/ AeAe | %47
 fe/d/ eAdA | cB/c/ AcFc | e/d/c/B/ cF/=E/ FF/E/ | F3 cFc | e/d/c/B/ d/c/B/A/ c/B/A/G/ | %52
 AG/F/ =EF/G/ AB | c=d/=e/ fe/d/ ed/e/ | f=e/f/ g/f/e/=d/ cf | d/c/B/A/ B d2 c/B/ | AG/A/ FcFc | %57
 e/d/c/B/ cfBf | AG/A/ FAcf- | f/e/=d/c/ Bf e2- | e=d/c/ d/c/d/e/ fd | eB/G/ EBEB | cB/A/ BeAe | %63
 GF/G/ EGBe- | e/d/c/B/ A e2 A | d/c/B/A/ G d2 G | A/E/A/c/ e/A/c/e/ a/g/f/e/ | %67
 f/A/d/f/ a/d/f/a/ d'f | e/A/c/e/ a/e/c/A/ d2 | c/F/A/c/ f/c/A/F/ a2 | c/F/A/c/ f/c/A/F/ f2- | %71
 f=e/=d/ e/d/e/f/ ed/e/ | fc/A/ FcFc | dc/B/ cfBf | A/G/F G3 F/G/ | F3 G/=A/ Bc | dc/d/ Bc/=d/ ef | %77
 gf/g/ ef/g/ ab | c'b/c'/ ac'/b/ ag | fe/f/ db/a/ gf | =e=d/c/ c'_e e/d/e | =dc/B/ b_d d/c/d | %82
 cB/A/ ac c/B/c | BA/G/ gB B/A/B | A/G/F B/A/G c/B/A | dc A2{GA} G2 | F6 |] %87
V:2
 z6 | z6 |: z6 | z3 G/F/ GF | E=D/E/ CD/E/ FD | E=DCDED | E=D/E/ CDE=E | F6- | F6- | F3 cF=d | %10
 c z2 c c/B/c | B z2 B B/A/B | A z2 A A/G/A | G z2 G G/F/G | F z2 F F/=E/F | =E4 z2 | z6 | x2 z4 | %18
 z6 | z6 | z6 | z6 | z3 G/F/ GF | E=D/E/ CD/E/ FD | E=DCDED | E=D/E/ CDE=E | F6- | F6- | F3 cF=d | %29
 c z2 cFc | B z2 BEB | A z z2 z2 | z6 | z6 | z6 | z6 | z6 :| z6 | z6 | z3 EA,E | %40
 FE/D/ EA,/G,/ A,C | E/D/C/B,/ D/C/B,/A,/ C/B,/A,/G,/ | A,2 z4 | z6 | z6 | z6 | z6 | z6 | z6 | %49
 z3 CF,C | DC/B,/ CF/E/ DC/B,/ | C/B,/A,/G,/ B,/A,/G,/F,/ A,/G,/F,/=E,/ | F,2 z4 | z6 | z6 | z6 | %56
 z6 | z6 | z6 | z6 | z6 | z6 | z6 | z6 | z6 | z6 | z6 | z6 | z6 | z6 | z6 | z6 | z6 | z6 | z6 | %75
 z C/B,/ =A,B,/C/ DE | FE/F/ D/=D/E/F/ GA | BA/B/ GA/B/ cd | ed/e/ ce/d/ cB | AG/A/ Fd/c/ BA | %80
 G2 z cFc | B2 z BEB | A2 z ACA | G2 z GCG | F2 =E2 F2- | F4- F=E | C6 |] %87
V:3
 z6 | z6 |: z6 | z6 | z6 | z6 | z6 | z6 | z6 | z6 | z6 | z6 | z6 | z6 | z6 | z4 CB, | A,4 B,2 | %17
 A,3 G,F,G, | A,4 B,3/2A,/4B,/4 | C6- | C4 z2 | z6 | z6 | z6 | z6 | z6 | z6 | z6 | z6 | z6 | z6 | %31
 z4 CD | E3 DCB, | A,4 B,C | D4- DC/D/ | C6- | C4 z2 :| z6 | z6 | z6 | z6 | z6 | z4 E2 | F4 ED | %44
{D} C4 A,B, |{B,} C2{B,C} B,3 A,/B,/ | A,6- | A,4 z2 | z6 | z6 | z6 | z6 | z4 C2 | C4 C2 | %54
 B,4 A,2 | G,4- G,F,/G,/ | F,6- | F,4 z2 | z6 | A,4 G,2 |{F,E,} F,4- F,E,/F,/ | E,6- | E,4 z2 | %63
 z4 E,2 | A,4 A,2 | B,4 B,2 | C4 z2 | z4 D2 | C4 B,2 | A,3 G, F,2 | A,4 B,A, |{G,F,} G,6 | F,6- | %73
 F,4 z2 | z6 | z6 | z6 | z6 | z6 | z6 | z6 | z6 | z6 | z6 | z6 | z6 | z6 |] %87
V:4
 F,2 F,,2 =E,2 | F,2 F,,2 =E,2 |: F,3 =E,F,E, | F,2 E,2 =D,2 | C,2 z2 G,,2 | C,3 G,C,G, | %6
 C,2 z2 CB, | A,G,/A,/ F,A,B,G, | A,G,F,G,A,G, | A,3 =A,B,=B, | C2 =A,,2 =A,2 | B,2 G,,2 G,2 | %12
 A,2 F,,2 F,2 | G,2 =E,,2 =E,2 | F,2 z2 =B,,2 | C,4 z2 | F,2 F,,2 =E,2 | F,2 F,,2 F,2- | %18
 F,2 E,2 D,2 | C,4 =E,2 | F,2 F,,2 =E,2 | F,3 =E,F,E, | F,2 E,2 =D,2 | C,2 z2 G,,2 | C,3 G,C,G, | %25
 C,2 z2 CB, | A,G,/A,/ F,G,/A,/ B,G, | A,G,F,G, A,G, | A,3 =A,B,=B, | C2 =A,,2 =A,2 | %30
 B,2 G,,2 G,2 | A,2 A,,2 A,2 | G,2 G,,2 A,2 | F,2 F,,2 B,,A,, | G,,2 B,2 G,2 | =E,2 z2 E,2 | %36
 F,2 F,,2 =E,2 :| F,2 z2 G,2 | A,2 C,A,C,A, | D,A,C,A,C,A, | D,A,C,A,C,A, | D,A,E,A,E,G, | %42
 A,2 z2 A,,2 | D,2 z2 E,2 | F,2 z2 C,D, | E,2 z2 E,,2 | A,,2 z A,C,A, | D,A,C,A,B,,A, | %48
 A,,3 F,A,,F, | B,,F,A,,F,A,,F, | B,,F,A,,F,B,,F, | B,,F,C,F,C,=E, | F,2 z2 =E,2 | =E,2 =D,2 C,2 | %54
 =D,2 =E,2 F,2 | B,,2 G,,2 =E,2 | F,3 F,A,,F, | B,,F,A,,F,G,,F, | F,,2 z2 F,2 | =D,2 z2 E,2 | %60
 A,,2 F,,2 B,,2 | G,,3 E,G,,E, | A,,E,G,,E,F,,E, | E,,2 z2 D,2 | C,2 z2 F,2 | B,,2 z2 E,2 | %66
 A,,2 z2 C,2 | D,2 z2 F,G, | A,2 z2 B,2 | F,4 z2 | F,2 z2 D,C, | B,,2 z2 C,B,, | A,,3 F,A,,F, | %73
 B,,F,A,,F,G,,F, | F,,2 B,,2 C,2 | F,,3 E,D,C, | B,,3 A,G,F, | E,3 DCB, | A,2 A,,2 A,2 | %79
 D2 D,2 G,2 | C2 =A,,2 =A,2 | B,2 G,,2 G,2 | A,2 F,,2 F,2 | G,2 =E,,2 =E,2 | F,2 G,2 A,2 | %85
 B,2 C2 C,2 | F,6 |] %87

